public/logos/ae.svg

<svg width="390" height="200" viewBox="0 0 390 200" fill="none" xmlns="http://www.w3.org/2000/svg">
<path d="M374.545 191.12C374.545 186.889 377.562 183.641 381.508 183.641C385.422 183.641 388.462 186.887 388.462 191.12C388.462 195.432 385.422 198.694 381.508 198.694C377.562 198.694 374.545 195.432 374.545 191.12ZM373.01 191.12C373.01 196.181 376.881 199.999 381.51 199.999C386.128 199.999 390 196.181 390 191.12C390 186.139 386.128 182.336 381.51 182.336C376.881 182.334 373.01 186.139 373.01 191.12ZM378.211 196.308H379.747V191.868H381.371L384.062 196.308H385.718L382.891 191.756C384.357 191.582 385.492 190.801 385.492 188.938C385.492 186.966 384.387 185.995 382.035 185.995H378.21V196.308H378.211ZM379.748 187.3H381.789C382.824 187.3 383.959 187.506 383.959 188.876C383.959 190.499 382.704 190.562 381.357 190.562H379.748V187.3Z" fill="white"/>
<path d="M223.7 0.0167912C238.474 7.97297 247.049 23.2501 247.049 41.9637C247.049 57.6382 239.276 68.19 227.543 77.309C227.543 77.309 218.765 84.4214 213.98 87.8426L249.733 132.336C250.799 130.808 265.428 116.772 265.428 116.772H358.345V78.5165H265.278V44.1424H364.545L364.59 0.0307834L223.7 0.0167912ZM283.466 151.576L273.343 162.174L302.035 198.503L364.545 198.584V151.591L283.466 151.576ZM171.77 0.0167912L75.5422 0L0 198.599L63.8848 198.503L76.2376 161.728L136.094 161.744C133.947 154.934 132.827 147.312 132.827 138.861C132.827 112.921 150.389 96.1178 166.879 84.42C159.168 75.0156 148.001 60.7739 148.001 41.3914C148 22.8023 156.552 7.83024 171.77 0.0167912ZM85.9154 117.743L108.075 48.9656L129.546 117.743H85.9154Z" fill="white"/>
<path d="M197.686 28.6428C189.378 28.6428 185.1 34.356 185.1 41.8994C185.1 47.8504 189.794 53.5482 195.131 60.1681C197.256 58.7996 201.529 55.6009 201.529 55.6009C206.442 51.9405 210.276 47.5972 210.276 41.8994C210.276 34.356 205.573 28.6428 197.686 28.6428Z" fill="white"/>
<path d="M187.624 113.748C178.937 120.879 172.73 129.2 172.73 140.341C172.73 153.184 184.389 166.63 196.931 167.569C205.459 168.205 214.41 164.8 221.131 158.499" fill="white"/>
</svg>

<svg xmlns="http://www.w3.org/2000/svg" width="390" height="200" fill="none"><path fill="#fff" d="M374.545 191.12c0-4.231 3.017-7.479 6.963-7.479 3.914 0 6.954 3.246 6.954 7.479 0 4.312-3.04 7.574-6.954 7.574-3.946 0-6.963-3.262-6.963-7.574m-1.535 0c0 5.061 3.871 8.879 8.5 8.879 4.618 0 8.49-3.818 8.49-8.879 0-4.981-3.872-8.784-8.49-8.784-4.629-.002-8.5 3.803-8.5 8.784m5.201 5.188h1.536v-4.44h1.624l2.691 4.44h1.656l-2.827-4.552c1.466-.174 2.601-.955 2.601-2.818 0-1.972-1.105-2.943-3.457-2.943h-3.825v10.313zm1.537-9.008h2.041c1.035 0 2.17.206 2.17 1.576 0 1.623-1.255 1.686-2.602 1.686h-1.609zM223.7.017c14.774 7.956 23.349 23.233 23.349 41.947 0 15.674-7.773 26.226-19.506 35.345 0 0-8.778 7.112-13.563 10.534l35.753 44.493c1.066-1.528 15.695-15.564 15.695-15.564h92.917V78.516h-93.067V44.142h99.267L364.59.031zm59.766 151.559-10.123 10.598 28.692 36.329 62.51.081v-46.993zM171.77.016 75.542 0 0 198.599l63.885-.096 12.353-36.775 59.856.016c-2.147-6.81-3.267-14.432-3.267-22.883 0-25.94 17.562-42.743 34.052-54.441-7.711-9.404-18.878-23.646-18.878-43.029C148 22.802 156.552 7.831 171.77.017M85.915 117.744l22.16-68.777 21.471 68.777zM197.686 28.643c-8.308 0-12.586 5.713-12.586 13.256 0 5.951 4.694 11.65 10.031 18.27 2.125-1.37 6.398-4.568 6.398-4.568 4.913-3.66 8.747-8.004 8.747-13.702 0-7.543-4.703-13.256-12.59-13.256M187.624 113.748c-8.687 7.131-14.894 15.452-14.894 26.593 0 12.843 11.659 26.289 24.201 27.228 8.528.636 17.479-2.769 24.2-9.07"/></svg>
